X:1
T: The Merry Old Woman
C:
R:Jig
Q:180
K:G
M:6/8
L:1/16
GA|B6 A2G2F2|D2G2G2 G4A2|B2A2B2 c2B2c2|d2g2g2 f2d2c2|B2G2B2 A2F2A2|D2G2G2 F2G2A2|B2d2B2 c2A2F2|A2G2G2 G4GA|
B6 A2G2F2|D2G2G2 G4A2|B2A2B2 c2B2c2|d2g2g2 f2d2c2|B2G2B2 A2F2A2|D2G2G2 F2G2A2|B2d2B2 c2A2F2|A2G2G2 G4A2|
B2A2B2 c2B2c2|d2g2g2 f2d2c2|d2g2g2 g2f2g2|a2g2f2 g4A2|B2A2B2 c2B2c2|d2g2g2 f2d2c2|B4d2c2 A2F2A2|G2G2G4 A2|
B2A2B2 c2B2c2|d2g2g2 f2d2c2|d2g2g2 g2f2g2|a2g2f2 g4a2|b2g2b2 a2f2a2|g2f2d2 c2A2F2|B2c2d2 c2A2F2|A2G2G2 G4||
